!!!COM: Hensel, Fanny
!!!CDT: 1805/11/14-1847/05/14
!!!LYR: Hensel, Wilhelm
!!!OTL: Waldeinsam
!!!OMD: Allegro
**kern	**text	**dynam	**kern	**text	**dynam	**kern	**text	**dynam	**kern	**text	**dynam
*part4	*part4	*part4	*part3	*part3	*part3	*part2	*part2	*part2	*part1	*part1	*part1
*staff4	*staff4	*	*staff3	*staff3	*	*staff2	*staff2	*	*staff1	*staff1	*
*I"Baß	*	*	*I"Tenor	*	*	*I"Alt	*	*	*I"Sopran	*	*
*clefF4	*	*	*clefGv2	*	*	*clefG2	*	*	*clefG2	*	*
*k[]	*	*	*k[]	*	*	*k[]	*	*	*k[]	*	*
*C:	*	*	*C:	*	*	*C:	*	*	*C:	*	*
*M4/4	*	*	*M4/4	*	*	*M4/4	*	*	*M4/4	*	*
*met(c)	*	*	*met(c)	*	*	*met(c)	*	*	*met(c)	*	*
=	=	=	=	=	=	=	=	=	=	=	=
!	!	!	!	!	!	!	!	!	!LO:TX:a:B:	!	!
4C	Wie	f	4c	Wie	f	4e	Wie	f	4g	Wie	f
=1	=1	=1	=1	=1	=1	=1	=1	=1	=1	=1	=1
4.GG	hoff-	.	4.B	hoff-	.	4.f	hoff-	.	4.ee	hoff-	.
8GG	-nungs-	.	8B	-nungs-	.	8f	-nungs-	.	8dd	-nungs-	.
4C	-grün	.	4c	-grün	.	4e	-grün	.	4cc	-grün	.
4C	ist	.	4G	ist	.	4c	ist	.	4e	ist	.
=2	=2	=2	=2	=2	=2	=2	=2	=2	=2	=2	=2
4.C	rings	.	4.A	rings	.	4.e	rings	.	4.g	rings	.
8C	die	.	8B	die	.	8d	die	.	8f	die	.
4c	Welt,	.	4c	Welt,	.	4c	Welt,	.	4e	Welt,	.
4B	wie	.	4d	wie	.	4d	wie	.	4g	wie	.
=3	=3	=3	=3	=3	=3	=3	=3	=3	=3	=3	=3
4A	hoff-	.	4c	hoff-	.	4f	hoff-	.	4cc	hoff-	.
4G	-nungs-	.	4c	-nungs-	.	4e	-nungs-	.	4cc	-nungs-	.
4F	-grün	.	4B	-grün	.	4g	-grün	.	4dd	-grün	.
4E	ist	.	4c#X	ist	.	4g	ist	.	4ee	ist	.
=4	=4	=4	=4	=4	=4	=4	=4	=4	=4	=4	=4
*a:	*	*	*a:	*	*	*a:	*	*	*a:	*	*
4.D	rings	.	4.c#X	rings	.	4.a	rings	.	4.gg	rings	.
8D	die	.	8d	die	.	8a	die	.	8ff	die	.
4D	Welt,	.	4d	Welt,	.	4a	Welt,	.	4ff	Welt,	.
4F	ein	.	4A	ein	.	4a	ein	.	4dd	ein	.
=5	=5	=5	=5	=5	=5	=5	=5	=5	=5	=5	=5
4E	strahl-	.	4B	strahl-	.	4g#X	strahl-	.	4ee	strahl-	.
4E	-end	.	4G#X	-end	.	4e	-end	.	4b	-end	.
4AA	Blühn,	.	4A	Blühn,	.	4e	Blühn,	.	4cc	Blühn,	.
8r	.	.	8r	.	.	8r	.	.	8r	.	.
8F	ein	.	8A	ein	.	8a	ein	.	8dd	ein	.
=6	=6	=6	=6	=6	=6	=6	=6	=6	=6	=6	=6
4E	Glanz	.	4B	Glanz	.	4g#X	Glanz	.	4ee	Glanz	.
4E	und	.	4G#X	und	.	4e	und	.	4b	und	.
4AA	Glühn,	.	4A	Glühn,	.	4e	Glühn,	.	4cc	Glühn,	.
4A	.	.	4c	.	.	4e	.	.	8r	.	.
.	.	.	.	.	.	.	.	.	8a	vom	.
=7	=7	=7	=7	=7	=7	=7	=7	=7	=7	=7	=7
4D	Bo-	.	4A	Bo-	.	4f	Bo-	.	4.ff	Bo-	.
4E	.	.	4c#X	.	.	4g	.	.	.	.	.
.	.	.	.	.	.	.	.	.	8ee	-den	.
4F	-bis	.	4d	-bis	.	4a	-bis	.	(8eeL	bis	.
.	.	.	.	.	.	.	.	.	8ddJ)	.	.
*C:	*	*	*C:	*	*	*C:	*	*	*C:	*	*
4F#X	.	.	4d	.	.	4a	.	.	8r	.	.
.	.	.	.	.	.	.	.	.	8cc	zum	.
=8	=8	=8	=8	=8	=8	=8	=8	=8	=8	=8	=8
4G	Him-	.	4d	Him-	.	4g	Him-	.	(8ccL	Him-	.
.	.	.	.	.	.	.	.	.	8bJ)	.	.
4A	-mels-	.	4c	-mels-	.	4f#X	-mels-	.	(8ccL	-mels-	.
.	.	.	.	.	.	.	.	.	8aJ)	.	.
4B	-zelt,	.	4d	-zelt,	.	4g	-zelt,	.	4g	-zelt,	.
4G	wie	.	4B	wie	.	4fn	wie	.	4g	wie	.
=9	=9	=9	=9	=9	=9	=9	=9	=9	=9	=9	=9
2C	hoff-	.	2c	hoff-	.	2.e	hoff-	.	(2g	hoff-	.
2C	.	.	2c	.	.	.	.	.	4cc)	.	.
.	.	.	.	.	.	4g	-nungs-	.	4ee	-nungs-	.
=10	=10	=10	=10	=10	=10	=10	=10	=10	=10	=10	=10
2c	-grün	.	2e	-grün	.	2cc	-grün	.	2gg	-grün	.
4r	.	.	4r	.	.	4r	.	.	4r	.	.
4C	ist	.	4c	ist	.	4e	ist	.	4cc	ist	.
=11	=11	=11	=11	=11	=11	=11	=11	=11	=11	=11	=11
2.G	rings	.	2c	rings	.	2.f	rings	.	2.dd	rings	.
.	.	.	2B	.	.	.	.	.	.	.	.
4G	die	.	.	.	.	4g	die	.	4ee	die	.
=12	=12	=12	=12	=12	=12	=12	=12	=12	=12	=12	=12
2C	Welt.	.	2G	Welt.	.	2e	Welt.	.	2cc	Welt.	.
4r	.	.	4r	.	.	4r	.	.	4r	.	.
4r	.	.	4r	.	.	4r	.	.	4r	.	.
=:|!13	=:|!13	=:|!13	=:|!13	=:|!13	=:|!13	=:|!13	=:|!13	=:|!13	=:|!13	=:|!13	=:|!13
!	!	!	!	!	!	!	!	!	!LO:TX:a:t=Solo	!	!
*a:	*	*	*a:	*	*	*a:	*	*	*a:	*	*
2E	All-	.	2e	All-	.	2g#X	All-	.	2b	All-	.
4.E	-mächtig-	.	4.e	-mächtig-	.	4.g#	-mächtig-	.	4.b	-mächtig-	.
8E	-tig	.	8e	-tig	.	8g#	-tig	.	8b	-tig	.
=14	=14	=14	=14	=14	=14	=14	=14	=14	=14	=14	=14
2.E	schallt	.	2.B	schallt	.	2.g#X	schallt	.	2.ee	schallt	.
4E	durch	.	4B	durch	.	4e	durch	.	4g#X	durch	.
=15	=15	=15	=15	=15	=15	=15	=15	=15	=15	=15	=15
2.BB	Blüth’	.	2.f#X	Blüth’	.	(4e	Blüth’	.	2.b	Blüth’	.
.	.	.	.	.	.	4d#X	.	.	.	.	.
.	.	.	.	.	.	4c#X)	.	.	.	.	.
4BB	und	.	4f#	und	.	4d#	und	.	4a	und	.
=16	=16	=16	=16	=16	=16	=16	=16	=16	=16	=16	=16
2.E	Baum.	.	2.B	Baum.	.	(2d#X	Baum.	.	(2a	Baum.	.
.	.	.	.	.	.	4e)	.	.	4g#X)	.	.
4r	.	.	4r	.	.	4r	.	.	4r	.	.
=17	=17	=17	=17	=17	=17	=17	=17	=17	=17	=17	=17
2E	All-	.	2G#X	All-	.	2e	All-	.	2b	All-	.
4.E	-mäch-	.	4.G#	-mäch-	.	4.e	-mäch-	.	4.b	-mäch-	.
8E	-tig	.	8B	-tig	.	8g#X	-tig	.	8ee	-tig	.
=18	=18	=18	=18	=18	=18	=18	=18	=18	=18	=18	=18
2.BB	schallt	.	2.e	schallt	.	2.b	schallt	.	2.gg#X	schallt	.
4B	durch	.	4e	durch	.	4g#X	durch	.	4ee	durch	.
=19	=19	=19	=19	=19	=19	=19	=19	=19	=19	=19	=19
2B	Blüth’	.	2f#X	Blüth’	.	2a	Blüth’	.	2ee	Blüth’	.
2B	und	.	4g#X	und	.	4b	und	.	2dd#X	und	.
.	.	.	4f#	.	.	4a	.	.	.	.	.
=20	=20	=20	=20	=20	=20	=20	=20	=20	=20	=20	=20
4E	Baum	.	4e	Baum	.	4g#X	Baum	.	4ee	Baum	.
4G#X	und	.	4B	und	.	4r	.	.	4r	.	.
4B	wie-	.	4d	wie-	.	2r	.	.	2r	.	.
4c	-der	.	4e	-der	.	.	.	.	.	.	.
=21	=21	=21	=21	=21	=21	=21	=21	=21	=21	=21	=21
[1d	wallt	.	[1f	wallt	.	4r	.	.	4r	.	.
.	.	.	.	.	.	4g#X	und	.	4b	und	.
.	.	.	.	.	.	4b	wie-	.	4dd	wie-	.
.	.	.	.	.	.	4cc	-der	.	4ee	-der	.
=22	=22	=22	=22	=22	=22	=22	=22	=22	=22	=22	=22
4d]	.	.	4f]	.	.	[1dd	wallt	.	[1ff	wallt	.
4G#X	und	.	4B	und	.	.	.	.	.	.	.
4B	wi-	.	4d	wi-	.	.	.	.	.	.	.
4c	-der-	.	4e	-der-	.	.	.	.	.	.	.
=23	=23	=23	=23	=23	=23	=23	=23	=23	=23	=23	=23
2d	-halt,	.	2f	-halt,	.	4dd]	.	.	4ff]	.	.
.	.	.	.	.	.	4g#X	und	.	4b	und	.
4B	wi-	.	4d	wi-	.	4b	wi-	.	4dd	wi-	.
4A	-der-	.	4c	-der-	.	4cc	-der-	.	4ee	-der-	.
=24	=24	=24	=24	=24	=24	=24	=24	=24	=24	=24	=24
2.G#X;	-hallt	.	2.B;	-hallt	.	2.dd;	-hallt	.	2.ff;	-hallt	.
4G#	der	.	4d	der	.	4f	der	.	4dd	der	.
=25	=25	=25	=25	=25	=25	=25	=25	=25	=25	=25	=25
2.A	Lie-	.	2.c	Lie-	.	4e	Lie-	.	2.cc	Lie-	.
.	.	.	.	.	.	4e	-be	.	.	.	.
.	.	.	.	.	.	[2f	gold-	.	.	.	.
4A	-be	.	4A	-be	.	.	.	.	4cc#X	-be	.
=26	=26	=26	=26	=26	=26	=26	=26	=26	=26	=26	=26
2.B-X	gold-	.	2.B-X	gold-	.	4f]	.	.	2.dd	gold-	.
.	.	.	.	.	.	4f#X	-ner	.	.	.	.
.	.	.	.	.	.	([2g	Mor-	.	.	.	.
*C:	*	*	*C:	*	*	*C:	*	*	*C:	*	*
4Bn	-ner	.	4Bn	-ner	.	.	.	.	4dd#X	-ner	.
=27	=27	=27	=27	=27	=27	=27	=27	=27	=27	=27	=27
(4c	Mor-	.	(4c	Mor-	.	4g]	.	.	(4ee	Mor-	.
4E)	.	.	2c#X)	.	.	2b-X)	.	.	2gg)	.	.
2F	.	.	.	.	.	.	.	.	.	.	.
.	.	.	4d	-gen-	.	4a	-gen-	.	(8ffL	-gen-	.
.	.	.	.	.	.	.	.	.	8ddJ)	.	.
=28	=28	=28	=28	=28	=28	=28	=28	=28	=28	=28	=28
2.G	-traum,	.	2e	-traum,	.	2.g	-traum,	.	2cc	-traum,	.
.	.	.	4d	.	.	.	.	.	4b	.	.
4G	der	.	4B	der	.	4d	der	.	4g	der	.
=29	=29	=29	=29	=29	=29	=29	=29	=29	=29	=29	=29
2G	Lie-	.	2c	Lie-	.	2e	Lie-	.	2g	Lie-	.
2G	-be	.	2c	-be	.	2e	-be	.	2g	-be	.
=30	=30	=30	=30	=30	=30	=30	=30	=30	=30	=30	=30
2G	gold-	.	2c#X	gold-	.	2e	gold-	.	2b-X	gold-	.
2G	-ner	.	2c#	-ner	.	2e	-ner	.	2a	-ner	.
=31	=31	=31	=31	=31	=31	=31	=31	=31	=31	=31	=31
[1GG	Traum.	.	2.d	Mor-	.	2.f	Mor-	.	2.ff	Mor-	.
.	.	.	4B	-gen-	.	4f	-gen-	.	4dd	-gen-	.
=32	=32	=32	=32	=32	=32	=32	=32	=32	=32	=32	=32
2.GG;]	.	.	2.d;	-traum.	.	2.f;	-traum.	.	2.b;	-traum.	.
!	!	!	!	!	!	!	!	!	!LO:TX:a:t=Tutti	!	!
4C	Wald-	.	4c	Wald-	.	4e	Wald-	.	4g	Wald-	.
=33	=33	=33	=33	=33	=33	=33	=33	=33	=33	=33	=33
4.GG	-ein-	.	4.B	-ein-	.	4.f	-ein-	.	4.ee	-ein-	.
8GG	-sam-	.	8B	-sam-	.	8f	-sam-	.	8dd	-sam-	.
4C	-keit	.	4c	-keit	.	4e	-keit	.	4cc	-keit	.
4C	so	.	4G	so	.	4c	so	.	4e	so	.
=34	=34	=34	=34	=34	=34	=34	=34	=34	=34	=34	=34
4.C	rings	.	4.A	rings	.	4.e	rings	.	4.g	rings	.
8C	und	.	8B	und	.	8d	und	.	8f	und	.
4c	rund,	.	4c	rund,	.	4c	rund,	.	4e	rund,	.
4B	Wald-	.	4d	Wald-	.	4d	Wald-	.	4g	Wald-	.
=35	=35	=35	=35	=35	=35	=35	=35	=35	=35	=35	=35
4A	-ein-	.	4c	-ein-	.	4f	-ein-	.	4cc	-ein-	.
4G	-sam-	.	4c	-sam-	.	4e	-sam-	.	4cc	-sam-	.
4F	-keit	.	4B	-keit	.	4g	-keit	.	4dd	-keit	.
*a:	*	*	*a:	*	*	*a:	*	*	*a:	*	*
4E	so	.	4c#X	so	.	4g	so	.	4ee	so	.
=36	=36	=36	=36	=36	=36	=36	=36	=36	=36	=36	=36
4.D	rings	.	4.c#X	rings	.	4.a	rings	.	4.gg	rings	.
8D	und	.	8d	und	.	8a	und	.	8ff	und	.
4D	rund,	.	4d	rund,	.	4a	rund,	.	4ff	rund,	.
4F	so	.	4A	so	.	4a	so	.	4dd	so	.
=37	=37	=37	=37	=37	=37	=37	=37	=37	=37	=37	=37
4E	ru-	.	4B	ru-	.	4g#X	ru-	.	4ee	ru-	.
4E	-hend	.	4G#X	-hend	.	4e	-hend	.	4b	-hend	.
4.AA	weit,	.	4.A	weit,	.	4.e	weit,	.	4.cc	weit,	.
8F	ver-	.	8A	ver-	.	8a	ver-	.	8dd	ver-	.
=38	=38	=38	=38	=38	=38	=38	=38	=38	=38	=38	=38
4E	-traut,	.	4B	-traut,	.	4g#X	-traut,	.	4ee	-traut,	.
4E	be-	.	4G#X	be-	.	4e	be-	.	4b	be-	.
4AA	-freit,	.	4A	-freit,	.	4e	-freit,	.	4.cc	-freit,	.
4A	er-	.	4c	er-	.	4e	er-	.	.	.	.
.	.	.	.	.	.	.	.	.	8a	er-	.
=39	=39	=39	=39	=39	=39	=39	=39	=39	=39	=39	=39
4D	-tö-	.	4A	-tö-	.	4f	-tö-	.	4.ff	-tö-	.
4E	-ne	.	4c#X	-ne	.	4g	-ne	.	.	.	.
.	.	.	.	.	.	.	.	.	8ee	-ne	.
4F	Lied	.	4d	Lied	.	4a	Lied	.	(8eeL	Lied	.
.	.	.	.	.	.	.	.	.	8ddJ)	.	.
*C:	*	*	*C:	*	*	*C:	*	*	*C:	*	*
4F#X	.	.	4d	.	.	4a	.	.	8r	.	.
.	.	.	.	.	.	.	.	.	8cc	von	.
=40	=40	=40	=40	=40	=40	=40	=40	=40	=40	=40	=40
4G	mei-	.	4d	mei-	.	4g	mei-	.	(8ccL	mei-	.
.	.	.	.	.	.	.	.	.	8bJ)	.	.
4A	-nem-	.	4c	-nem-	.	4f#X	-nem-	.	(8ccL	-nem-	.
.	.	.	.	.	.	.	.	.	8aJ)	.	.
4B	-Mund,	.	4d	-Mund,	.	4g	-Mund,	.	4g	-Mund,	.
4G	er-	.	4B	er-	.	4fn	er-	.	4g	er-	.
=41	=41	=41	=41	=41	=41	=41	=41	=41	=41	=41	=41
2C	-tö-	.	2c	-tö-	.	2.e	-tö-	.	(2g	-tö-	.
2C	-ne	.	2c	-ne	.	.	.	.	4cc)	.	.
.	.	.	.	.	.	4g	-ne	.	4ee	-ne	.
=42	=42	=42	=42	=42	=42	=42	=42	=42	=42	=42	=42
2c	Lied	.	2e	Lied	.	2cc	Lied	.	2gg	Lied	.
4r	.	.	4r	.	.	4r	.	.	4r	.	.
4C	von	.	4c	von	.	4e	von	.	4cc	von	.
=43	=43	=43	=43	=43	=43	=43	=43	=43	=43	=43	=43
2GG	mei-	.	2c	mei-	.	2.f	mei-	.	2.dd	mei-	.
2G	-nem	.	2B	-nem	.	.	.	.	.	.	.
.	.	.	.	.	.	4g	-nem	.	4ee	-nem	.
=44	=44	=44	=44	=44	=44	=44	=44	=44	=44	=44	=44
2C	Mund.	.	2c	Mund.	.	2e	Mund.	.	2cc	Mund.	.
4r	.	.	4r	.	.	4r	.	.	4r	.	.
4C	er-	.	4G	er-	.	4e	er-	.	4g	er-	.
=45	=45	=45	=45	=45	=45	=45	=45	=45	=45	=45	=45
2.C	-tö-	.	2.B-X	-tö-	.	(4c	-tö-	.	(4e	-tö-	.
.	.	.	.	.	.	4d	.	.	4f	.	.
.	.	.	.	.	.	4e)	.	.	4g)	.	.
4C	-ne	.	4B-	-ne	.	4e	-ne	.	4cc	-ne	.
=46	=46	=46	=46	=46	=46	=46	=46	=46	=46	=46	=46
2.C	Lied	.	2.A	Lied	.	(4f	Lied	.	(4a	Lied	.
.	.	.	.	.	.	4g	.	.	4b	.	.
.	.	.	.	.	.	4a)	.	.	4cc)	.	.
4C	von	.	4A	von	.	4g	von	.	4ee	von	.
=47	=47	=47	=47	=47	=47	=47	=47	=47	=47	=47	=47
2D	mei-	.	(4A	mei-	.	(2f#X	mei-	.	(4dd	mei-	.
.	.	.	4c	.	.	.	.	.	4aa	.	.
2GG	-nem	.	4B)	.	.	4dd)	.	.	4gg)	.	.
.	.	.	4d	-nem	.	4b	-nem	.	4ff	-nem	.
=48	=48	=48	=48	=48	=48	=48	=48	=48	=48	=48	=48
[1C	Mund.	.	(1d	Mund.	.	(1b	Mund.	.	(1ff	Mund.	.
=49	=49	=49	=49	=49	=49	=49	=49	=49	=49	=49	=49
2.C]	.	.	2.c)	.	.	2.cc)	.	.	2.ee)	.	.
4r	.	.	4r	.	.	4r	.	.	4r	.	.
==	==	==	==	==	==	==	==	==	==	==	==
*-	*-	*-	*-	*-	*-	*-	*-	*-	*-	*-	*-
!!!system-decoration: ([s1,s2,s3,s4])
!!!EED: Imke Redecker